deployments/warp_routes/eUSD/logo.svg

<svg xmlns="http://www.w3.org/2000/svg" width="48" height="48" fill="none" viewBox="0 0 48 48"><path fill="#075833" d="M0 24C0 10.745 10.745 0 24 0s24 10.745 24 24-10.745 24-24 24S0 37.255 0 24"/><path fill="#35A35A" d="M31.238 28.018c0 3.192-2.296 5.488-5.768 5.908v2.884h-2.744v-2.94c-3.584-.532-5.852-2.94-5.964-6.496h3.22c.196 2.408 1.876 3.892 4.368 3.892 2.268 0 3.668-1.092 3.668-2.884 0-1.708-1.064-2.436-4.788-3.136-4.172-.784-5.992-2.436-5.992-5.46 0-3.08 2.184-5.264 5.488-5.684V11.19h2.744v2.996c3.248.532 5.348 2.716 5.46 5.908h-3.22c-.224-2.072-1.708-3.332-3.864-3.332-2.128 0-3.416 1.036-3.416 2.772 0 1.652 1.064 2.38 4.732 3.052 4.172.728 6.076 2.464 6.076 5.432"/></svg>

<svg width="48" height="48" viewBox="0 0 48 48" fill="none" xmlns="http://www.w3.org/2000/svg">
<path d="M0 24C0 10.7452 10.7452 0 24 0C37.2548 0 48 10.7452 48 24C48 37.2548 37.2548 48 24 48C10.7452 48 0 37.2548 0 24Z" fill="#075833"/>
<path d="M31.238 28.018C31.238 31.21 28.942 33.506 25.47 33.926V36.81H22.726V33.87C19.142 33.338 16.874 30.93 16.762 27.374H19.982C20.178 29.782 21.858 31.266 24.35 31.266C26.618 31.266 28.018 30.174 28.018 28.382C28.018 26.674 26.954 25.946 23.23 25.246C19.058 24.462 17.238 22.81 17.238 19.786C17.238 16.706 19.422 14.522 22.726 14.102V11.19H25.47V14.186C28.718 14.718 30.818 16.902 30.93 20.094H27.71C27.486 18.022 26.002 16.762 23.846 16.762C21.718 16.762 20.43 17.798 20.43 19.534C20.43 21.186 21.494 21.914 25.162 22.586C29.334 23.314 31.238 25.05 31.238 28.018Z" fill="#35A35A"/>
</svg>
